www/assets/icons/format_color_text.svg

<svg xmlns="http://www.w3.org/2000/svg" width="24" height="24" viewBox="0 0 24 24" fill='currentColor'><path d="M2 18.5h20v4H2zm3.49-3h2.42l1.27-3.58h5.65l1.26 3.58h2.42l-5.26-14h-2.5zm4.42-5.61 2.03-5.79h.12l2.03 5.79z"/></svg>

<svg width="24" height="24" viewBox="0 0 24 24" xmlns="http://www.w3.org/2000/svg" fill='currentColor'><path d="M2 18.5H22V22.5H2V18.5ZM5.49 15.5H7.91L9.18 11.92H14.83L16.09 15.5H18.51L13.25 1.5H10.75L5.49 15.5ZM9.91 9.89L11.94 4.1H12.06L14.09 9.89H9.91Z"/></svg>
